images/social-telegram.svg

<?xml version="1.0" encoding="UTF-8"?>
<svg xmlns="http://www.w3.org/2000/svg" xmlns:xlink="http://www.w3.org/1999/xlink" viewBox="0 0 40 40" width="40px" height="40px">
<g id="surface89524342">
<path style=" stroke:none;fill-rule:nonzero;fill:rgb(2.745098%,2.745098%,2.745098%);fill-opacity:1;" d="M 1.601562 40 C 0.714844 40 0 39.285156 0 38.398438 L 0 1.601562 C 0 0.714844 0.714844 0 1.601562 0 L 38.398438 0 C 39.285156 0 40 0.714844 40 1.601562 L 40 38.398438 C 40 39.285156 39.285156 40 38.398438 40 Z M 36.800781 38.398438 C 37.683594 38.398438 38.398438 37.683594 38.398438 36.800781 L 38.398438 3.199219 C 38.398438 2.316406 37.683594 1.601562 36.800781 1.601562 L 3.199219 1.601562 C 2.316406 1.601562 1.601562 2.316406 1.601562 3.199219 L 1.601562 36.800781 C 1.601562 37.683594 2.316406 38.398438 3.199219 38.398438 Z M 36.800781 38.398438 "/>
<path style=" stroke:none;fill-rule:nonzero;fill:rgb(0%,0%,0%);fill-opacity:1;" d="M 33.964844 6.371094 C 33.617188 6.386719 33.273438 6.484375 32.964844 6.609375 C 32.660156 6.730469 30.902344 7.480469 28.3125 8.589844 C 25.71875 9.699219 22.347656 11.140625 19.003906 12.574219 C 12.320312 15.4375 5.753906 18.253906 5.753906 18.253906 L 5.800781 18.234375 C 5.800781 18.234375 5.40625 18.367188 5.003906 18.648438 C 4.800781 18.789062 4.585938 18.96875 4.410156 19.234375 C 4.234375 19.496094 4.101562 19.871094 4.152344 20.265625 C 4.324219 21.652344 5.761719 22.046875 5.761719 22.046875 L 5.765625 22.046875 L 12.183594 24.246094 C 12.347656 24.789062 14.128906 30.742188 14.523438 32 C 14.738281 32.699219 14.941406 33.097656 15.152344 33.375 C 15.257812 33.511719 15.371094 33.617188 15.492188 33.695312 C 15.542969 33.726562 15.59375 33.75 15.644531 33.769531 C 15.652344 33.773438 15.65625 33.773438 15.664062 33.773438 L 15.648438 33.769531 C 15.660156 33.773438 15.671875 33.78125 15.683594 33.789062 C 15.707031 33.796875 15.71875 33.796875 15.75 33.800781 C 16.484375 34.058594 17.089844 33.582031 17.089844 33.582031 L 17.117188 33.5625 L 21.058594 29.90625 L 27.457031 34.894531 L 27.535156 34.929688 C 28.65625 35.425781 29.667969 35.148438 30.230469 34.695312 C 30.789062 34.238281 31.011719 33.648438 31.011719 33.648438 L 31.035156 33.585938 L 35.734375 9.085938 C 35.855469 8.539062 35.875 8.0625 35.761719 7.636719 C 35.648438 7.207031 35.371094 6.835938 35.023438 6.628906 C 34.679688 6.421875 34.316406 6.355469 33.964844 6.371094 Z M 34.003906 7.835938 C 34.148438 7.832031 34.253906 7.847656 34.285156 7.867188 C 34.320312 7.886719 34.335938 7.882812 34.367188 8.003906 C 34.398438 8.125 34.414062 8.378906 34.328125 8.777344 L 34.324219 8.785156 L 29.652344 33.144531 C 29.640625 33.167969 29.542969 33.394531 29.320312 33.574219 C 29.09375 33.761719 28.839844 33.90625 28.171875 33.625 L 21.175781 28.167969 L 20.980469 28.011719 L 20.972656 28.019531 L 18.882812 26.449219 L 30.640625 12.617188 C 30.824219 12.398438 30.863281 12.09375 30.742188 11.835938 C 30.617188 11.582031 30.355469 11.421875 30.070312 11.425781 C 29.9375 11.429688 29.804688 11.472656 29.691406 11.546875 L 12.679688 22.890625 L 6.25 20.691406 C 6.25 20.691406 5.613281 20.335938 5.582031 20.085938 C 5.582031 20.074219 5.574219 20.085938 5.605469 20.035156 C 5.640625 19.988281 5.722656 19.902344 5.828125 19.832031 C 6.035156 19.683594 6.273438 19.597656 6.273438 19.597656 L 6.300781 19.589844 L 6.324219 19.578125 C 6.324219 19.578125 12.890625 16.761719 19.574219 13.898438 C 22.914062 12.464844 26.285156 11.023438 28.878906 9.914062 C 31.46875 8.808594 33.34375 8.007812 33.5 7.945312 C 33.683594 7.875 33.863281 7.84375 34.003906 7.835938 Z M 26.207031 15.601562 L 17.292969 26.09375 L 17.289062 26.097656 C 17.273438 26.113281 17.261719 26.132812 17.246094 26.148438 C 17.234375 26.167969 17.21875 26.1875 17.207031 26.210938 C 17.160156 26.296875 17.125 26.390625 17.113281 26.488281 C 17.113281 26.488281 17.113281 26.492188 17.113281 26.492188 L 15.953125 31.714844 C 15.933594 31.660156 15.917969 31.640625 15.898438 31.574219 L 15.898438 31.570312 C 15.53125 30.386719 13.847656 24.773438 13.617188 24 Z M 18.296875 27.8125 L 19.898438 29.015625 L 17.546875 31.195312 Z M 18.296875 27.8125 "/>
</g>
</svg>

<svg xmlns="http://www.w3.org/2000/svg" width="40" height="40"><g id="surface89524342"><path d="M1.602 40A1.599 1.599 0 010 38.398V1.602A1.6 1.6 0 011.602 0h36.796A1.6 1.6 0 0140 1.602v36.796A1.6 1.6 0 0138.398 40zM36.8 38.398c.883 0 1.597-.714 1.597-1.597V3.199c0-.883-.714-1.597-1.597-1.597H3.199c-.883 0-1.597.714-1.597 1.597v33.602c0 .883.714 1.597 1.597 1.597zm0 0" fill="#070707"/><path d="M33.965 6.371a3.073 3.073 0 00-1 .238 510.9 510.9 0 00-4.653 1.98c-2.593 1.11-5.964 2.552-9.308 3.985-6.684 2.864-13.25 5.68-13.25 5.68l.047-.02s-.395.133-.797.414c-.203.141-.418.32-.594.586a1.538 1.538 0 00-.258 1.032c.172 1.386 1.61 1.78 1.61 1.78h.004l6.418 2.2c.164.543 1.945 6.496 2.34 7.754.214.7.417 1.098.628 1.375.106.137.22.242.34.32a.91.91 0 00.153.075.035.035 0 00.02.003l-.017-.003a.158.158 0 01.036.02c.023.007.035.007.066.01.734.259 1.34-.218 1.34-.218l.027-.02 3.942-3.656 6.398 4.989.078.035c1.121.496 2.133.218 2.695-.235a2.78 2.78 0 00.782-1.047l.023-.062 4.7-24.5c.12-.547.14-1.024.027-1.45a1.68 1.68 0 00-.739-1.007 1.853 1.853 0 00-1.058-.258zm.039 1.465c.144-.004.25.012.281.031.035.02.05.016.082.137.031.121.047.375-.039.773l-.004.008-4.672 24.36c-.011.023-.109.25-.332.43-.226.187-.48.331-1.148.05l-6.996-5.457-.196-.156-.007.008-2.09-1.57L30.64 12.616a.731.731 0 00.101-.781.737.737 0 00-.672-.41.737.737 0 00-.379.12L12.68 22.892l-6.43-2.2s-.637-.355-.668-.605c0-.012-.008 0 .023-.05a.984.984 0 01.223-.204c.207-.148.445-.234.445-.234l.028-.008.023-.012 13.25-5.68c3.34-1.433 6.711-2.875 9.305-3.984 2.59-1.105 4.465-1.906 4.621-1.969.184-.07.363-.101.504-.11zm-7.797 7.766l-8.914 10.492-.004.004c-.016.015-.027.035-.043.05-.012.02-.027.04-.039.063a.778.778 0 00-.094.277v.004l-1.16 5.223c-.02-.055-.035-.074-.055-.14v-.005c-.367-1.183-2.05-6.797-2.28-7.57zm-7.91 12.21l1.601 1.204-2.351 2.18zm0 0"/></g></svg>
